Crule-dark/status/symbolic/input-keyboard-capslock-symbolic.svg

<?xml version="1.0" encoding="UTF-8" standalone="no"?>
<svg
   xmlns:dc="http://purl.org/dc/elements/1.1/"
   xmlns:cc="http://creativecommons.org/ns#"
   xmlns:rdf="http://www.w3.org/1999/02/22-rdf-syntax-ns#"
   xmlns:svg="http://www.w3.org/2000/svg"
   xmlns="http://www.w3.org/2000/svg"
   height="16"
   width="16"
   version="1.1"
   id="svg6">
  <metadata
     id="metadata12">
    <rdf:RDF>
      <cc:Work
         rdf:about="">
        <dc:format>image/svg+xml</dc:format>
        <dc:type
           rdf:resource="http://purl.org/dc/dcmitype/StillImage" />
        <dc:title></dc:title>
      </cc:Work>
    </rdf:RDF>
  </metadata>
  <defs
     id="defs10" />
  <path
     id="path2"
     d="M 3 1 C 1.892 1 1 1.892 1 3 L 1 13 C 1 14.108 1.892 15 3 15 L 13 15 C 14.108 15 15 14.108 15 13 L 15 3 C 15 1.892 14.108 1 13 1 L 3 1 z M 3 2 L 13 2 C 13.554 2 14 2.446 14 3 L 14 12 C 14 12.554 13.554 13 13 13 L 3 13 C 2.446 13 2 12.554 2 12 L 2 3 C 2 2.446 2.446 2 3 2 z M 8 3.0253906 C 7.8637815 3.0253906 7.727563 3.0796319 7.625 3.1855469 L 5.125 6.1855469 C 5.06913 6.2567769 5.0377563 6.3430938 5.0351562 6.4335938 C 5.0221563 6.7005937 5.223 6.9900469 5.5 6.9980469 L 7 6.9980469 L 7 10.498047 C 7 10.759047 7.238 10.998047 7.5 10.998047 L 8.5 10.998047 C 8.53126 11.001047 8.56249 11.001047 8.59375 10.998047 C 8.82905 10.946337 8.9977 10.738947 9 10.498047 L 9 6.9980469 L 10.5 6.9980469 C 10.869 6.9860469 11.105 6.4735469 10.875 6.1855469 L 8.375 3.1855469 C 8.272437 3.0796319 8.1362185 3.0253906 8 3.0253906 z "
     style="opacity:1;fill:#dedede;fill-opacity:1;marker:none" />
</svg>

<svg xmlns="http://www.w3.org/2000/svg" height="16" width="16"><path d="M3 1c-1.108 0-2 .892-2 2v10c0 1.108.892 2 2 2h10c1.108 0 2-.892 2-2V3c0-1.108-.892-2-2-2H3zm0 1h10c.554 0 1 .446 1 1v9c0 .554-.446 1-1 1H3c-.554 0-1-.446-1-1V3c0-.554.446-1 1-1zm5 1.025a.522.522 0 00-.375.16l-2.5 3a.42.42 0 00-.09.249c-.013.267.188.556.465.564H7v3.5c0 .261.238.5.5.5h1a.49.49 0 00.094 0 .517.517 0 00.406-.5v-3.5h1.5c.369-.012.605-.524.375-.812l-2.5-3A.522.522 0 008 3.026z" style="marker:none" fill="#dedede"/></svg>
